X:1
T:Rabbit A-Hunting
M:C
L:1/8
R:Reel
S:From Mandy Gallagher of Carrickart on the Rosguill Peninsula of Donegal
S:From an old "Job of Journeywork" show tape made by Tom Masterson
S:(flute, R.I.P.) of Chicago, unearthed by Tom Jr.
Z:by David James with help from Martin McGinley of Ramelton (Donegal),
Z:Paul de Grae and David Alcock.
K:D
zF | G2GE A2BA | GFGE AFDF | GFGE A2^GA | Beed e2 :|
fe | edBG A2Bc | dBAE FEDd | edBG A2^GA | Beed e2 |]
fe | edBG A2Bc | dBAE FEDF | GFGE A2^GA | Be~^d2 e2 |]
%:From Mandy Gallagher of Carrickart on the Rosguill Peninsula of
%:Donegal. C.f. Mac Aoidh (1994: 174). From an old tape of the "Job of
%:Journeywork" RTE show, recorded by the concert flutist Tom Masterson,
%:R.I.P., of Chicago, and unearthed by Tom Jr.
